X:607
T:Miss Baird of Saughton Hall
R:Reel
C:Mrs. Robertson
B:The Athole Collection
M:C|
L:1/8
K:F
cdcf cAAB|cAdB ~c2 cd|cfag fcAF|GABc d2 df:|
cfAB cAAB|cfAB ~c2cd|cfAB cfAF|GABc d2df|
cfAB cAAB|cfAB ~c2 cf/g/|afge fcAF|GABc d2d2||

